images/16757923.svg

<?xml version="1.0" encoding="UTF-8"?>
<svg xmlns="http://www.w3.org/2000/svg" xmlns:xlink="http://www.w3.org/1999/xlink" width="300pt" height="300pt" viewBox="0 0 300 300" version="1.1">
<defs>
<g>
<symbol overflow="visible" id="glyph0-0">
<path style="stroke:none;" d="M 0.453125 1.59375 L 0.453125 -6.34375 L 4.953125 -6.34375 L 4.953125 1.59375 Z M 0.953125 1.09375 L 4.453125 1.09375 L 4.453125 -5.84375 L 0.953125 -5.84375 Z M 0.953125 1.09375 "/>
</symbol>
<symbol overflow="visible" id="glyph0-1">
<path style="stroke:none;" d="M 3.546875 -5.953125 C 2.898438 -5.953125 2.382812 -5.710938 2 -5.234375 C 1.625 -4.753906 1.4375 -4.101562 1.4375 -3.28125 C 1.4375 -2.445312 1.625 -1.789062 2 -1.3125 C 2.382812 -0.832031 2.898438 -0.59375 3.546875 -0.59375 C 4.191406 -0.59375 4.703125 -0.832031 5.078125 -1.3125 C 5.453125 -1.789062 5.640625 -2.445312 5.640625 -3.28125 C 5.640625 -4.101562 5.453125 -4.753906 5.078125 -5.234375 C 4.703125 -5.710938 4.191406 -5.953125 3.546875 -5.953125 Z M 3.546875 -6.6875 C 4.460938 -6.6875 5.195312 -6.375 5.75 -5.75 C 6.300781 -5.132812 6.578125 -4.3125 6.578125 -3.28125 C 6.578125 -2.238281 6.300781 -1.410156 5.75 -0.796875 C 5.195312 -0.179688 4.460938 0.125 3.546875 0.125 C 2.617188 0.125 1.878906 -0.179688 1.328125 -0.796875 C 0.773438 -1.410156 0.5 -2.238281 0.5 -3.28125 C 0.5 -4.3125 0.773438 -5.132812 1.328125 -5.75 C 1.878906 -6.375 2.617188 -6.6875 3.546875 -6.6875 Z M 3.546875 -6.6875 "/>
</symbol>
<symbol overflow="visible" id="glyph0-2">
<path style="stroke:none;" d="M 0.890625 -6.5625 L 1.765625 -6.5625 L 1.765625 -3.875 L 5 -3.875 L 5 -6.5625 L 5.890625 -6.5625 L 5.890625 0 L 5 0 L 5 -3.125 L 1.765625 -3.125 L 1.765625 0 L 0.890625 0 Z M 0.890625 -6.5625 "/>
</symbol>
</g>
</defs>
<g id="surface31789">
<rect x="0" y="0" width="300" height="300" style="fill:rgb(100%,100%,100%);fill-opacity:1;stroke:none;"/>
<path style="fill:none;stroke-width:1;stroke-linecap:butt;stroke-linejoin:miter;stroke:rgb(0%,0%,0%);stroke-opacity:1;stroke-miterlimit:10;" d="M 181.289062 143.894531 L 181.289062 143.894531 M 183.824219 142.285156 L 183.121094 141.515625 M 186.355469 140.679688 L 184.949219 139.136719 M 188.886719 139.070312 L 186.777344 136.761719 M 191.421875 137.460938 L 188.609375 134.382812 M 193.953125 135.855469 L 190.4375 132.003906 M 196.488281 134.246094 L 192.265625 129.628906 M 199.019531 132.640625 L 194.097656 127.25 M 201.550781 131.03125 L 195.925781 124.871094 M 202.589844 130.371094 L 196.675781 123.898438 "/>
<path style="fill:none;stroke-width:1.2;stroke-linecap:butt;stroke-linejoin:miter;stroke:rgb(0%,0%,0%);stroke-opacity:1;stroke-miterlimit:10;" d="M 181.289062 143.894531 L 173.441406 120.320312 "/>
<path style="fill:none;stroke-width:1.2;stroke-linecap:butt;stroke-linejoin:miter;stroke:rgb(0%,0%,0%);stroke-opacity:1;stroke-miterlimit:10;" d="M 164.796875 162.476562 L 181.289062 143.894531 "/>
<path style="fill:none;stroke-width:1.2;stroke-linecap:butt;stroke-linejoin:miter;stroke:rgb(0%,0%,0%);stroke-opacity:1;stroke-miterlimit:10;" d="M 204.058594 153.835938 L 181.289062 143.894531 "/>
<path style="fill:none;stroke-width:1.2;stroke-linecap:butt;stroke-linejoin:miter;stroke:rgb(0%,0%,0%);stroke-opacity:1;stroke-miterlimit:10;" d="M 173.441406 120.320312 L 149.101562 115.328125 "/>
<path style="fill:none;stroke-width:1.2;stroke-linecap:butt;stroke-linejoin:miter;stroke:rgb(0%,0%,0%);stroke-opacity:1;stroke-miterlimit:10;" d="M 149.101562 115.328125 L 132.609375 133.910156 "/>
<path style="fill:none;stroke-width:1.2;stroke-linecap:butt;stroke-linejoin:miter;stroke:rgb(0%,0%,0%);stroke-opacity:1;stroke-miterlimit:10;" d="M 132.609375 133.910156 L 108.269531 128.921875 "/>
<path style="fill:none;stroke-width:1.2;stroke-linecap:butt;stroke-linejoin:miter;stroke:rgb(0%,0%,0%);stroke-opacity:1;stroke-miterlimit:10;" d="M 140.457031 157.484375 L 132.609375 133.910156 "/>
<path style="fill:none;stroke-width:1.2;stroke-linecap:butt;stroke-linejoin:miter;stroke:rgb(0%,0%,0%);stroke-opacity:1;stroke-miterlimit:10;" d="M 108.269531 128.921875 L 100.421875 105.347656 "/>
<path style=" stroke:none;fill-rule:nonzero;fill:rgb(0%,0%,0%);fill-opacity:1;" d="M 108.269531 128.921875 L 128.042969 113.246094 L 121.480469 107.425781 Z M 108.269531 128.921875 "/>
<path style="fill:none;stroke-width:1.2;stroke-linecap:butt;stroke-linejoin:miter;stroke:rgb(0%,0%,0%);stroke-opacity:1;stroke-miterlimit:10;" d="M 91.777344 147.503906 L 108.269531 128.921875 "/>
<path style="fill:none;stroke-width:1.2;stroke-linecap:butt;stroke-linejoin:miter;stroke:rgb(0%,0%,0%);stroke-opacity:1;stroke-miterlimit:10;" d="M 100.421875 105.347656 L 76.082031 100.355469 "/>
<path style="fill:none;stroke-width:1.2;stroke-linecap:butt;stroke-linejoin:miter;stroke:rgb(0%,0%,0%);stroke-opacity:1;stroke-miterlimit:10;" d="M 96.8125 110.574219 L 77.339844 106.582031 "/>
<path style="fill:none;stroke-width:1.2;stroke-linecap:butt;stroke-linejoin:miter;stroke:rgb(0%,0%,0%);stroke-opacity:1;stroke-miterlimit:10;" d="M 76.082031 100.355469 L 59.589844 118.941406 "/>
<path style="fill:none;stroke-width:1.2;stroke-linecap:butt;stroke-linejoin:miter;stroke:rgb(0%,0%,0%);stroke-opacity:1;stroke-miterlimit:10;" d="M 60.175781 116.074219 L 48.007812 113.582031 "/>
<path style="fill:none;stroke-width:1.2;stroke-linecap:butt;stroke-linejoin:miter;stroke:rgb(100%,0%,0%);stroke-opacity:1;stroke-miterlimit:10;" d="M 48.007812 113.582031 L 35.835938 111.085938 "/>
<path style="fill:none;stroke-width:1.2;stroke-linecap:butt;stroke-linejoin:miter;stroke:rgb(0%,0%,0%);stroke-opacity:1;stroke-miterlimit:10;" d="M 59.003906 121.804688 L 46.832031 119.308594 "/>
<path style="fill:none;stroke-width:1.2;stroke-linecap:butt;stroke-linejoin:miter;stroke:rgb(100%,0%,0%);stroke-opacity:1;stroke-miterlimit:10;" d="M 46.832031 119.308594 L 34.664062 116.8125 "/>
<path style="fill:none;stroke-width:1.2;stroke-linecap:butt;stroke-linejoin:miter;stroke:rgb(0%,0%,0%);stroke-opacity:1;stroke-miterlimit:10;" d="M 59.589844 118.941406 L 67.4375 142.515625 "/>
<path style=" stroke:none;fill-rule:nonzero;fill:rgb(100%,100%,100%);fill-opacity:1;" d="M 27.25 108.449219 L 35.25 108.449219 L 35.25 119.449219 L 27.25 119.449219 Z M 27.25 108.449219 "/>
<g style="fill:rgb(100%,0%,0%);fill-opacity:1;">
  <use xlink:href="#glyph0-1" x="27.25" y="117.112305"/>
</g>
<path style="fill:none;stroke-width:1.2;stroke-linecap:butt;stroke-linejoin:miter;stroke:rgb(0%,0%,0%);stroke-opacity:1;stroke-miterlimit:10;" d="M 67.4375 142.515625 L 91.777344 147.503906 "/>
<path style="fill:none;stroke-width:1.2;stroke-linecap:butt;stroke-linejoin:miter;stroke:rgb(0%,0%,0%);stroke-opacity:1;stroke-miterlimit:10;" d="M 67.4375 142.515625 L 66.75 167.351562 "/>
<path style="fill:none;stroke-width:1.2;stroke-linecap:butt;stroke-linejoin:miter;stroke:rgb(0%,0%,0%);stroke-opacity:1;stroke-miterlimit:10;" d="M 67.4375 142.515625 L 42.859375 146.148438 "/>
<path style="fill:none;stroke-width:1.2;stroke-linecap:butt;stroke-linejoin:miter;stroke:rgb(0%,0%,0%);stroke-opacity:1;stroke-miterlimit:10;" d="M 91.777344 147.503906 L 99.625 171.078125 "/>
<path style="fill:none;stroke-width:1.2;stroke-linecap:butt;stroke-linejoin:miter;stroke:rgb(0%,0%,0%);stroke-opacity:1;stroke-miterlimit:10;" d="M 98.109375 148.015625 L 104.386719 166.875 "/>
<path style="fill:none;stroke-width:1.2;stroke-linecap:butt;stroke-linejoin:miter;stroke:rgb(0%,0%,0%);stroke-opacity:1;stroke-miterlimit:10;" d="M 99.625 171.078125 L 123.964844 176.070312 "/>
<path style="fill:none;stroke-width:1.2;stroke-linecap:butt;stroke-linejoin:miter;stroke:rgb(0%,0%,0%);stroke-opacity:1;stroke-miterlimit:10;" d="M 99.625 171.078125 L 91.378906 180.371094 "/>
<path style="fill:none;stroke-width:1.2;stroke-linecap:butt;stroke-linejoin:miter;stroke:rgb(100%,0%,0%);stroke-opacity:1;stroke-miterlimit:10;" d="M 91.378906 180.371094 L 83.132812 189.664062 "/>
<path style="fill:none;stroke-width:1.2;stroke-linecap:butt;stroke-linejoin:miter;stroke:rgb(0%,0%,0%);stroke-opacity:1;stroke-miterlimit:10;" d="M 121.191406 176.992188 L 125.117188 188.78125 "/>
<path style="fill:none;stroke-width:1.2;stroke-linecap:butt;stroke-linejoin:miter;stroke:rgb(100%,0%,0%);stroke-opacity:1;stroke-miterlimit:10;" d="M 125.117188 188.78125 L 129.039062 200.566406 "/>
<path style="fill:none;stroke-width:1.2;stroke-linecap:butt;stroke-linejoin:miter;stroke:rgb(0%,0%,0%);stroke-opacity:1;stroke-miterlimit:10;" d="M 126.738281 175.144531 L 130.664062 186.933594 "/>
<path style="fill:none;stroke-width:1.2;stroke-linecap:butt;stroke-linejoin:miter;stroke:rgb(100%,0%,0%);stroke-opacity:1;stroke-miterlimit:10;" d="M 130.664062 186.933594 L 134.585938 198.722656 "/>
<path style="fill:none;stroke-width:1.2;stroke-linecap:butt;stroke-linejoin:miter;stroke:rgb(0%,0%,0%);stroke-opacity:1;stroke-miterlimit:10;" d="M 123.964844 176.070312 L 140.457031 157.484375 "/>
<path style=" stroke:none;fill-rule:nonzero;fill:rgb(100%,100%,100%);fill-opacity:1;" d="M 127.8125 194.144531 L 135.8125 194.144531 L 135.8125 205.144531 L 127.8125 205.144531 Z M 127.8125 194.144531 "/>
<g style="fill:rgb(100%,0%,0%);fill-opacity:1;">
  <use xlink:href="#glyph0-1" x="127.8125" y="202.807617"/>
</g>
<path style="fill:none;stroke-width:1.2;stroke-linecap:butt;stroke-linejoin:miter;stroke:rgb(0%,0%,0%);stroke-opacity:1;stroke-miterlimit:10;" d="M 140.457031 157.484375 L 164.796875 162.476562 "/>
<path style="fill:none;stroke-width:1;stroke-linecap:butt;stroke-linejoin:miter;stroke:rgb(0%,0%,0%);stroke-opacity:1;stroke-miterlimit:10;" d="M 140.457031 157.484375 L 140.457031 157.484375 M 139.976562 160.449219 L 141.386719 160.339844 M 139.5 163.410156 L 142.3125 163.191406 M 139.019531 166.371094 L 143.242188 166.042969 M 138.539062 169.332031 L 144.167969 168.898438 M 138.058594 172.292969 L 145.097656 171.75 M 137.582031 175.253906 L 146.023438 174.601562 M 137.480469 175.882812 L 146.222656 175.207031 "/>
<path style="fill:none;stroke-width:1.2;stroke-linecap:butt;stroke-linejoin:miter;stroke:rgb(0%,0%,0%);stroke-opacity:1;stroke-miterlimit:10;" d="M 164.796875 162.476562 L 177.375 183.902344 "/>
<path style="fill:none;stroke-width:1;stroke-linecap:butt;stroke-linejoin:miter;stroke:rgb(0%,0%,0%);stroke-opacity:1;stroke-miterlimit:10;" d="M 164.796875 162.476562 L 164.796875 162.476562 M 162.886719 164.789062 L 163.792969 165.304688 M 160.972656 167.101562 L 162.785156 168.128906 M 159.0625 169.410156 L 161.78125 170.957031 M 157.148438 171.722656 L 160.777344 173.78125 M 155.238281 174.035156 L 159.769531 176.609375 M 153.324219 176.347656 L 158.765625 179.4375 M 151.414062 178.660156 L 157.761719 182.261719 M 149.5 180.96875 L 156.753906 185.089844 M 148.714844 181.917969 L 156.34375 186.25 "/>
<path style=" stroke:none;fill-rule:nonzero;fill:rgb(0%,0%,0%);fill-opacity:1;" d="M 177.375 183.902344 L 152.5 179.699219 L 152.5625 188.46875 Z M 177.375 183.902344 "/>
<path style="fill:none;stroke-width:1.2;stroke-linecap:butt;stroke-linejoin:miter;stroke:rgb(0%,0%,0%);stroke-opacity:1;stroke-miterlimit:10;" d="M 177.375 183.902344 L 201.640625 178.5625 "/>
<path style=" stroke:none;fill-rule:nonzero;fill:rgb(100%,100%,100%);fill-opacity:1;" d="M 148.53125 178.582031 L 156.53125 178.582031 L 156.53125 189.582031 L 148.53125 189.582031 Z M 148.53125 178.582031 "/>
<g style="fill:rgb(100%,0%,0%);fill-opacity:1;">
  <use xlink:href="#glyph0-1" x="148.53125" y="187.245117"/>
</g>
<path style="fill:none;stroke-width:1.2;stroke-linecap:butt;stroke-linejoin:miter;stroke:rgb(0%,0%,0%);stroke-opacity:1;stroke-miterlimit:10;" d="M 201.640625 178.5625 L 204.058594 153.835938 "/>
<path style="fill:none;stroke-width:1.2;stroke-linecap:butt;stroke-linejoin:miter;stroke:rgb(0%,0%,0%);stroke-opacity:1;stroke-miterlimit:10;" d="M 204.058594 153.835938 L 225.488281 141.257812 "/>
<path style="fill:none;stroke-width:1.2;stroke-linecap:butt;stroke-linejoin:miter;stroke:rgb(0%,0%,0%);stroke-opacity:1;stroke-miterlimit:10;" d="M 225.488281 141.257812 L 227.90625 116.527344 "/>
<path style="fill:none;stroke-width:1.2;stroke-linecap:butt;stroke-linejoin:miter;stroke:rgb(0%,0%,0%);stroke-opacity:1;stroke-miterlimit:10;" d="M 231.546875 139.355469 L 233.484375 119.570312 "/>
<path style="fill:none;stroke-width:1.2;stroke-linecap:butt;stroke-linejoin:miter;stroke:rgb(0%,0%,0%);stroke-opacity:1;stroke-miterlimit:10;" d="M 248.257812 151.199219 L 225.488281 141.257812 "/>
<path style="fill:none;stroke-width:1.2;stroke-linecap:butt;stroke-linejoin:miter;stroke:rgb(0%,0%,0%);stroke-opacity:1;stroke-miterlimit:10;" d="M 227.90625 116.527344 L 240.039062 113.859375 "/>
<path style="fill:none;stroke-width:1.2;stroke-linecap:butt;stroke-linejoin:miter;stroke:rgb(100%,0%,0%);stroke-opacity:1;stroke-miterlimit:10;" d="M 240.039062 113.859375 L 252.171875 111.1875 "/>
<path style="fill:none;stroke-width:1.2;stroke-linecap:butt;stroke-linejoin:miter;stroke:rgb(100%,0%,0%);stroke-opacity:1;stroke-miterlimit:10;" d="M 252.171875 111.1875 L 258.460938 121.902344 "/>
<path style="fill:none;stroke-width:1.2;stroke-linecap:butt;stroke-linejoin:miter;stroke:rgb(0%,0%,0%);stroke-opacity:1;stroke-miterlimit:10;" d="M 258.460938 121.902344 L 264.75 132.617188 "/>
<path style=" stroke:none;fill-rule:nonzero;fill:rgb(100%,100%,100%);fill-opacity:1;" d="M 248.171875 105.6875 L 256.171875 105.6875 L 256.171875 116.6875 L 248.171875 116.6875 Z M 248.171875 105.6875 "/>
<g style="fill:rgb(100%,0%,0%);fill-opacity:1;">
  <use xlink:href="#glyph0-1" x="248.171875" y="114.350586"/>
</g>
<path style="fill:none;stroke-width:1.2;stroke-linecap:butt;stroke-linejoin:miter;stroke:rgb(0%,0%,0%);stroke-opacity:1;stroke-miterlimit:10;" d="M 264.75 132.617188 L 248.257812 151.199219 "/>
<path style="fill:none;stroke-width:1.2;stroke-linecap:butt;stroke-linejoin:miter;stroke:rgb(0%,0%,0%);stroke-opacity:1;stroke-miterlimit:10;" d="M 258.726562 130.59375 L 245.535156 145.460938 "/>
<path style=" stroke:none;fill-rule:nonzero;fill:rgb(100%,100%,100%);fill-opacity:1;" d="M 68.132812 184.164062 L 83.132812 184.164062 L 83.132812 195.164062 L 68.132812 195.164062 Z M 68.132812 184.164062 "/>
<g style="fill:rgb(100%,0%,0%);fill-opacity:1;">
  <use xlink:href="#glyph0-2" x="68.132812" y="192.827148"/>
  <use xlink:href="#glyph0-1" x="75.147461" y="192.827148"/>
</g>
</g>
</svg>

<svg xmlns="http://www.w3.org/2000/svg" xmlns:xlink="http://www.w3.org/1999/xlink" width="300pt" height="300pt" viewBox="0 0 300 300"><defs><symbol overflow="visible"><path d="M.453 1.594v-7.938h4.5v7.938zm.5-.5h3.5v-6.938h-3.5zm0 0"/></symbol><symbol overflow="visible" id="a"><path d="M3.547-5.953c-.65 0-1.164.242-1.547.72-.375.48-.563 1.13-.563 1.952 0 .835.188 1.49.563 1.967.383.48.898.72 1.547.72.644 0 1.156-.24 1.53-.72.376-.476.564-1.132.564-1.968 0-.822-.187-1.474-.562-1.954-.375-.477-.887-.72-1.53-.72zm0-.734c.914 0 1.648.312 2.203.937.55.617.828 1.438.828 2.47 0 1.042-.277 1.87-.828 2.483-.555.617-1.29.922-2.203.922-.93 0-1.668-.305-2.22-.922C.774-1.41.5-2.237.5-3.28c0-1.033.273-1.853.828-2.47.55-.625 1.29-.938 2.22-.938zm0 0"/></symbol><symbol overflow="visible" id="b"><path d="M.89-6.563h.876v2.688H5v-2.688h.89V0H5v-3.125H1.766V0H.89zm0 0"/></symbol></defs><g><path fill="#fff" d="M0 0h300v300H0z"/><path d="M181.29 143.895m2.534-1.61l-.703-.77m3.235-.835l-1.406-1.543m3.937-.067l-2.11-2.308m4.645.7l-2.813-3.08m5.343 1.473l-3.516-3.85m6.05 2.24l-4.22-4.616m6.753 3.01l-4.922-5.39m7.453 3.78l-5.624-6.16m6.664 5.5l-5.914-6.472" stroke="#000" stroke-miterlimit="10" fill="none"/><path d="M181.29 143.895l-7.85-23.575M164.797 162.477l16.492-18.582M204.06 153.836l-22.77-9.94M173.44 120.32l-24.338-4.992M149.102 115.328L132.61 133.91M132.61 133.91l-24.34-4.988M140.457 157.484l-7.848-23.574M108.27 128.922l-7.848-23.574" stroke-width="1.2" stroke="#000" stroke-miterlimit="10" fill="none"/><path d="M108.27 128.922l19.773-15.676-6.563-5.82zm0 0"/><path d="M91.777 147.504l16.493-18.582M100.422 105.348l-24.34-4.993M96.813 110.574l-19.473-3.992M76.082 100.355L59.59 118.94M60.176 116.074l-12.168-2.492" stroke-width="1.2" stroke="#000" stroke-miterlimit="10" fill="none"/><path d="M48.008 113.582l-12.172-2.496" stroke-width="1.2" stroke="#f00" stroke-miterlimit="10" fill="none"/><path d="M59.004 121.805l-12.172-2.496" stroke-width="1.2" stroke="#000" stroke-miterlimit="10" fill="none"/><path d="M46.832 119.31l-12.168-2.498" stroke-width="1.2" stroke="#f00" stroke-miterlimit="10" fill="none"/><path d="M59.59 118.94l7.847 23.576" stroke-width="1.2" stroke="#000" stroke-miterlimit="10" fill="none"/><path d="M27.25 108.45h8v11h-8zm0 0" fill="#fff"/><use xlink:href="#a" x="27.25" y="117.112" fill="#f00"/><path d="M67.438 142.516l24.34 4.988M67.438 142.516l-.688 24.836M67.438 142.516l-24.58 3.632M91.777 147.504l7.848 23.574M98.11 148.016l6.277 18.86M99.625 171.078l24.34 4.992M99.625 171.078l-8.246 9.293" stroke-width="1.2" stroke="#000" stroke-miterlimit="10" fill="none"/><path d="M91.38 180.37l-8.247 9.294" stroke-width="1.2" stroke="#f00" stroke-miterlimit="10" fill="none"/><path d="M121.19 176.992l3.927 11.79" stroke-width="1.2" stroke="#000" stroke-miterlimit="10" fill="none"/><path d="M125.117 188.78l3.922 11.786" stroke-width="1.2" stroke="#f00" stroke-miterlimit="10" fill="none"/><path d="M126.738 175.145l3.926 11.79" stroke-width="1.2" stroke="#000" stroke-miterlimit="10" fill="none"/><path d="M130.664 186.934l3.922 11.79" stroke-width="1.2" stroke="#f00" stroke-miterlimit="10" fill="none"/><path d="M123.965 176.07l16.492-18.586" stroke-width="1.2" stroke="#000" stroke-miterlimit="10" fill="none"/><path d="M127.813 194.145h8v11h-8zm0 0" fill="#fff"/><use xlink:href="#a" x="127.813" y="202.808" fill="#f00"/><path d="M140.457 157.484l24.34 4.993" stroke-width="1.2" stroke="#000" stroke-miterlimit="10" fill="none"/><path d="M140.457 157.484m-.48 2.965l1.41-.11m-1.887 3.07l2.813-.22m-3.293 3.18l4.222-.327m-4.703 3.29l5.628-.435m-6.11 3.395l7.04-.543m-7.516 3.504l8.44-.652m-8.542 1.28l8.743-.675" stroke="#000" stroke-miterlimit="10" fill="none"/><path d="M164.797 162.477l12.578 21.425" stroke-width="1.2" stroke="#000" stroke-miterlimit="10" fill="none"/><path d="M164.797 162.477m-1.91 2.312l.906.515m-2.82 1.797l1.812 1.027m-3.722 1.28l2.718 1.547m-4.632.766l3.63 2.058m-5.54.255l4.532 2.574m-6.446-.262l5.442 3.09m-7.352-.778l6.348 3.602m-8.262-1.293l7.254 4.12m-8.04-3.172l7.63 4.332" stroke="#000" stroke-miterlimit="10" fill="none"/><path d="M177.375 183.902L152.5 179.7l.063 8.77zm0 0"/><path d="M177.375 183.902l24.266-5.34" stroke-width="1.2" stroke="#000" stroke-miterlimit="10" fill="none"/><path d="M148.53 178.582h8v11h-8zm0 0" fill="#fff"/><use xlink:href="#a" x="148.531" y="187.245" fill="#f00"/><path d="M201.64 178.563l2.42-24.727M204.06 153.836l21.428-12.578M225.488 141.258l2.418-24.73M231.547 139.355l1.937-19.785M248.258 151.2l-22.77-9.942M227.906 116.527l12.133-2.668" stroke-width="1.2" stroke="#000" stroke-miterlimit="10" fill="none"/><path d="M240.04 113.86l12.132-2.672M252.172 111.188l6.29 10.714" stroke-width="1.2" stroke="#f00" stroke-miterlimit="10" fill="none"/><path d="M258.46 121.902l6.29 10.715" stroke-width="1.2" stroke="#000" stroke-miterlimit="10" fill="none"/><path d="M248.172 105.688h8v11h-8zm0 0" fill="#fff"/><use xlink:href="#a" x="248.172" y="114.351" fill="#f00"/><path d="M264.75 132.617L248.258 151.2M258.727 130.594l-13.192 14.867" stroke-width="1.2" stroke="#000" stroke-miterlimit="10" fill="none"/><path d="M68.133 184.164h15v11h-15zm0 0" fill="#fff"/><g fill="#f00"><use xlink:href="#b" x="68.133" y="192.827"/><use xlink:href="#a" x="75.147" y="192.827"/></g></g></svg>
